!!!COM: Mozart, Wolfgang Amadeus
!!!OPR: Divertimento in D Major
!!!OTL:
!!!OMV: 2
!!!SCT: K 136
!!!SCA: Chronologisch-thematisches Verzeichnis sämtlicher Tonwerke Wolfgang Amade Mozarts (L. von Köchel; 1862, 2/1905, 3/1937, 1947)
!!!YOR: Breitkopf & Härtel Edition
!!!EED: Frances Bennion
!!!ENC: Frances Bennion
!!!CDT: 1756/1/27/-1791/12/5/
!!!OCY: Österreich
!!!YEC: Copyright (c) 1994, 2000 Center for Computer Assisted Research in the Humanities
!!!YEM: Rights to all derivative editions reserved.
!!!YEM: Refer to licensing agreement for further details.
!!!YEN: United States of America
**kern	**kern	**kern	**kern
*k[f#]	*k[f#]	*k[f#]	*k[f#]
*G:	*G:	*G:	*G:
*clefG	*clefG	*clefF	*clefC
*M3/4	*M3/4	*M3/4	*M3/4
=1	=1	=1	=1
8.dd	8.b	4G	4G
32b	32g	.	.
32cc	32a	.	.
8dd	8b	2r	2r
8dd	8b	.	.
8dd	8b	.	.
8gg	8dd	.	.
=2	=2	=2	=2
8.dd	8.b	4G	4GG
32b	32g	.	.
32cc	32a	.	.
4dd	4b	8r	8r
.	.	8B	8GG
4r	4r	8c	8AA
.	.	8d	8BB
=3	=3	=3	=3
16cc	16a	4e	4C
16dd	16b	.	.
16ee	16cc	.	.
16cc	16a	.	.
16b	16g	4d	4D
16cc	16a	.	.
16dd	16b	.	.
16b	16g	.	.
16a	16f#	4d	4D
16b	16g	.	.
16cc	16a	.	.
16a	16f#	.	.
=4	=4	=4	=4
8b	8g	8d	4G
16a	16f#	16c	.
16g	16g	16B	.
4g	4g	4B	8r
.	.	.	8BB
4r	4r	4r	8D
.	.	.	8BB
=5	=5	=5	=5
8.dd	8.b	4G	4GG
32b	32g	.	.
32cc	32a	.	.
8dd	8b	2r	2r
8dd	8b	.	.
8dd	8b	.	.
8gg	8dd	.	.
=6	=6	=6	=6
8.dd	8.b	4G	4GG
32b	32g	.	.
32cc	32a	.	.
4dd	4b	8r	8r
.	.	8B	8GG
8r	4r	8c	8AA
8gg	.	8d	8BB
=7	=7	=7	=7
4.ee	8r	8G	8C
.	4g	16c	8C
.	.	16B	.
.	.	8c	8C
8cc	8e	8c	8C
8a	8c	8e	8C
8g	8B	8E	8C#
=8	=8	=8	=8
8g	8B	4D	4D
16f#	16A	.	.
16g	16G	.	.
4f#	4A	2r	8r
.	.	.	8F#
4r	4r	.	8A
.	.	.	8F#
=9	=9	=9	=9
[2.aa	8a	8f#	4D
.	16g	16e	.
.	16f#	16d	.
.	8f#	8d	4DD
.	8f#	8d	.
.	8f#	8d	4r
.	8a	8f#	.
=10	=10	=10	=10
2.aa_	8g	8e	4A
.	16f#	16d	.
.	16e	16c#	.
.	4e	4c#	8r
.	.	.	8AA
.	4r	4r	8A
.	.	.	8G
=11	=11	=11	=11
4aa]	8.d	8r	4F#
.	.	4A	.
.	32e	.	.
.	32f#	.	.
4gg	4c#	.	4E
.	.	4A	.
4ff#	4d	.	4D
.	.	8A	.
=12	=12	=12	=12
8ff#	8d	4A	4AA
16ee	16c#	.	.
16ff#	16d	.	.
4ee	4c#	4A	8r
.	.	.	8AA
4r	4r	4r	16A
.	.	.	16G
.	.	.	16F#
.	.	.	16E
=13	=13	=13	=13
8ff#	8a	8r	4D
16ee	16g	8A	.
16dd	16f#	.	.
8dd	8f#	8d	2r
8dd	8f#	8f#	.
8dd	8f#	4a	.
8ff#	8a	.	.
=14	=14	=14	=14
8ee	8g	8r	4AA
16dd	16f#	8A	.
16cc#	16e	.	.
4cc#	4e	8c#	2r
.	.	8e	.
4r	4r	8a	.
.	.	8g	.
=15	=15	=15	=15
8.dd	2.d	2f#	2.BB
32ee	.	.	.
32dd	.	.	.
8cc#	.	.	.
8b	.	.	.
8a	.	4d	.
8g#	.	.	.
=16	=16	=16	=16
4a	8e	8c#	4AA
.	16cc#	16A	.
.	16dd	16B	.
2r	16ee	16c#	4A
.	16ff#	16d	.
.	16gg	16e	.
.	16ff#	16d	.
.	8gg	8e	4G
.	16ff#	16f#	.
.	16ee	16g	.
=17	=17	=17	=17
[2ddd	8dd	8a	8F#
.	8a	8f#	8F#
.	8a	8F#	8F#
.	8a	8F#	8F#
8ddd]	8a	8F#	8F#
8ccc	8a	8F#	8F#
=18	=18	=18	=18
8aa#	8a	8G	8G
8bb	16g	4d	8G
.	16f#	.	.
4.bb	8g	.	8G
.	8f#	16d	8G
.	.	32e	.
.	.	32f#	.
.	8e	8g	8G
8bb	8d	8f#	8G
=19	=19	=19	=19
8bb	8c#	8e	8A
4aa	8c#	8e	8A
.	8c#	8e	8A
16ee	8c#	8e	8A
16ff#	.	.	.
24gg	8e	8c#	8AA
24ff#	.	.	.
24ee	.	.	.
24bb	8e	8c#	8AA
24aa	.	.	.
24gg	.	.	.
=20	=20	=20	=20
8.gg	4e	4c#	4.BB
32ff#	.	.	.
32gg	.	.	.
4ff#	4d	8d	.
.	.	8d	8BB
4r	4r	8c#	8AA
.	.	8B	8GG
=21	=21	=21	=21
16r	16r	4A	4FF#
16dd	16d	.	.
16cc#	16c#	.	.
16dd	16d	.	.
16ee	16e	2r	2r
16dd	16d	.	.
16ff#	16f#	.	.
16ee	16e	.	.
16gg	16g	.	.
16ff#	16f#	.	.
16ee	16e	.	.
16dd#	16d#	.	.
=22	=22	=22	=22
16r	16r	4B	4GG
16ee	16e	.	.
16dd#	16d#	.	.
16ee	16e	.	.
16ff#	16f#	4r	4r
16ee	16e	.	.
16gg	16g	.	.
16ff#	16f#	.	.
16aa	16a	4e	4C#
16gg	16g	.	.
16ff#	16f#	.	.
16ee	16e	.	.
=23	=23	=23	=23
16r	16r	16r	4D
16ff#	16f#	16d	.
16gg	16g	16e	.
16gg	16g	16e	.
16aa	16a	16f#	2r
16aa	16a	16f#	.
16bb	16b	16g	.
16bb	16b	16g	.
16ccc#	16cc#	16a	.
16ccc#	16cc#	16a	.
16ddd	16dd	16b	.
16ddd	16dd	16b	.
=24	=24	=24	=24
8bb	8b	8g	8G
16aa	16a	16f#	8G
16gg	16g	16e	.
4ff#	4f#	4d	8A
.	.	.	8A
4ee	4e	4c#	8AA
.	.	.	8AA
=25	=25	=25	=25
16r	16r	4A	4FF#
16dd	16d	.	.
16cc#	16c#	.	.
16dd	16d	.	.
16ee	16e	2r	2r
16dd	16d	.	.
16ff#	16f#	.	.
16ee	16e	.	.
16gg	16g	.	.
16ff#	16f#	.	.
16ee	16e	.	.
16dd#	16d#	.	.
=26	=26	=26	=26
16r	16r	4B	4GG
16ee	16e	.	.
16dd#	16d#	.	.
16ee	16e	.	.
16ff#	16f#	4r	4r
16ee	16e	.	.
16gg	16g	.	.
16ff#	16f#	.	.
16aa	16a	4e	4C#
16gg	16g	.	.
16ff#	16f#	.	.
16ee	16e	.	.
=27	=27	=27	=27
16r	16r	16r	4D
16ff#	16f#	16d	.
16gg	16g	16e	.
16gg	16g	16e	.
16aa	16a	16f#	2r
16aa	16a	16f#	.
16bb	16b	16g	.
16bb	16b	16g	.
16ccc#	16cc#	16a	.
16ccc#	16cc#	16a	.
16ddd	16dd	16b	.
16ddd	16dd	16b	.
=28	=28	=28	=28
8bb	8b	8g	8G
16aa	16a	16f#	8G
16gg	16g	16e	.
4ff#	4f#	4d	8A
.	.	.	8A
4ee	4e	4c#	8AA
.	.	.	8AA
=29	=29	=29	=29
8dd	8d	4.d	4D
4.aa	8d	.	.
.	8f#	.	4DD
.	8a	8d	.
24gg	[4a	8c#	4AA
24ff#	.	.	.
24ee	.	.	.
24dd	.	16e	.
24ee	.	16g	.
24cc#	.	.	.
=30	=30	=30	=30
8dd	8a]	4f#	4D
4.a	8f#	.	.
.	8d	8A	4FF#
.	8A	8F#	.
24g	4A	8E	4AA
24f#	.	.	.
24e	.	.	.
24d	.	8G	.
24e	.	.	.
24c#	.	.	.
=31	=31	=31	=31
2c#	[2A	2G	[2DD
8d	8A]	8F#	8DD]
8r	8r	8r	8r
=32	=32	=32	=32
2.r	16d	16A	4D
.	16f#	16d	.
.	16a	16f#	.
.	16f#	16d	.
.	16d	16A	4D
.	16f#	16d	.
.	16a	16f#	.
.	16f#	16d	.
.	16d	16A	4D
.	16f#	16d	.
.	16a	16f#	.
.	16f#	16d	.
=33	=33	=33	=33
2aa	16d	16A	4C
.	16f#	16d	.
.	16a	16f#	.
.	16f#	16d	.
.	16d	16A	4C
.	16f#	16d	.
.	16a	16f#	.
.	16f#	16d	.
8ff#	16d	16A	4C
.	16f#	16d	.
16ee	16a	16f#	.
16dd	16f#	16d	.
=34	=34	=34	=34
8gg	16d	16B	4BB
.	16g	16d	.
8dd	16b	16g	.
.	16g	16d	.
4dd	16d	16B	4BB
.	16g	16d	.
.	16b	16g	.
.	16g	16d	.
8r	16d	16B	4BB
.	16g	16d	.
8dd	16b	16g	.
.	16g	16d	.
=35	=35	=35	=35
8cc	16e	2A	4AA
.	16a	.	.
4ccc	16cc	.	.
.	16e	.	.
.	16d	.	4AA
.	16f#	.	.
8aa	16cc	.	.
.	16f#	.	.
8ff#	16d	4F#	4DD
.	16f#	.	.
8cc	16a	.	.
.	16A	.	.
=36	=36	=36	=36
16cc	16G	[2.G	4GG
16b	16B	.	.
16ee	16d	.	.
16dd	16B	.	.
4dd	16G	.	4GG
.	16B	.	.
.	16d	.	.
.	16B	.	.
8r	16G	.	4BB
.	16d	.	.
8ff	16g	.	.
.	16d	.	.
=37	=37	=37	=37
8ee	8e 8c	4G]	4C
4ccc	4ee	.	.
.	.	8r	4C
8bb	8dd	4e	.
8aa	8cc	.	8C
8gg	8b	8e	8C#
=38	=38	=38	=38
8.gg	8.b	4d	4D
32ff#	32a	.	.
32gg	32b	.	.
4ff#	4a	8r	8r
.	.	8e	8C
4r	4r	8d	8BB
.	.	8c	8AA
=39	=39	=39	=39
8.dd	8.b	4B	4GG
32b	32g	.	.
32cc	32a	.	.
8dd	8b	2r	2r
8dd	8b	.	.
8dd	8b	.	.
8gg	8dd	.	.
=40	=40	=40	=40
8.dd	8.b	4G	4GG
32b	32g	.	.
32cc	32a	.	.
4dd	4b	8r	8r
.	.	8B	8GG
4r	4r	8c	8AA
.	.	8d	8BB
=41	=41	=41	=41
16cc	16a	4e	4C
16dd	16b	.	.
16ee	16cc	.	.
16cc	16a	.	.
16b	16g	4d	4D
16cc	16a	.	.
16dd	16b	.	.
16b	16g	.	.
16a	16f#	4d	4D
16b	16g	.	.
16cc	16a	.	.
16a	16f#	.	.
=42	=42	=42	=42
8b	8g	4d	4G
16a	16f#	.	.
16g	16g	.	.
4g	4g	8r	8r
.	.	8B	8D
4r	4r	8d	8BB
.	.	8B	8D
=43	=43	=43	=43
8.dd	8.b	4G	4GG
32b	32g	.	.
32cc	32a	.	.
8dd	8b	2r	2r
8dd	8b	.	.
8dd	8b	.	.
8gg	8dd	.	.
=44	=44	=44	=44
8.dd	8.b	4G	4GG
32b	32g	.	.
32cc	32a	.	.
4dd	4b	8r	8r
.	.	8B	8GG
8r	4r	8c	8AA
8gg	.	8d	8BB
=45	=45	=45	=45
4.ee	8r	4G	8C
.	4g	.	8C
.	.	4.r	8C
8cc	8e	.	8C
8b	8c	.	8C
8g	8B	8e	8C#
=46	=46	=46	=46
8g	8B	4d	4D
16f#	16A	.	.
16g	16B	.	.
4f#	4A	4D	8DD
.	.	.	8c
4r	4r	4r	8B
.	.	.	8A
=47	=47	=47	=47
[2.ddd	8dd	8b	4G
.	16cc	16a	.
.	16b	16g	.
.	8b	8g	4GG
.	8b	8g	.
.	8b	8g	4r
.	8dd	8b	.
=48	=48	=48	=48
2.ddd_	8cc	8a	4D
.	16b	16g	.
.	16a	16f#	.
.	4a	4f#	8DD
.	.	.	8D
.	4r	4r	8D
.	.	.	8C
=49	=49	=49	=49
4ddd]	4g	[2.d	4BB
4ccc	4f#	.	4AA
4bb	4g	.	4GG
=50	=50	=50	=50
8bb	8g	4d]	8DD
16aa	16f#	.	8D
16bb	16g	.	.
4aa	4f#	4D	8D
.	.	.	8d
4r	4r	4r	16d
.	.	.	16c
.	.	.	16B
.	.	.	16A
=51	=51	=51	=51
8bb	8dd	8r	4G
16aa	16cc	8d	.
16gg	16b	.	.
8gg	8b	8g	2r
8gg	8b	8b	.
8gg	8b	4dd	.
8bb	8dd	.	.
=52	=52	=52	=52
8aa	8cc	8r	4D
16gg	16b	8d	.
16ff#	16a	.	.
4ff#	4a	8f#	2r
.	.	8a	.
4r	4r	8dd	.
.	.	8cc	.
=53	=53	=53	=53
8.gg	2.g 2.G	2b	2.E
32aa	.	.	.
32gg	.	.	.
8ff#	.	.	.
8ee	.	.	.
8dd	.	4g	.
8cc#	.	.	.
=54	=54	=54	=54
4dd	8f#	8a	8D
.	16f#	16d	8D
.	16g	16e	.
2r	16a	16f#	8D
.	16b	16g	.
.	16cc	16a	8D
.	16b	16g	.
.	8cc	8a	8C
.	16b	16g	8C
.	16a	16f#	.
=55	=55	=55	=55
2gg	8dd	8g	8BB
.	8dd	8g	8BB
.	8dd	8g	8BB
.	8dd	8g	8BB
8aa	8dd	8g	8BB
8ff	8dd	8g	8BB
=56	=56	=56	=56
8dd#	8dd	8g	8C
8ee	16cc	8g	8C
.	16b	.	.
4ee	8cc	8.g	8C
.	8b	.	8C
.	.	32a	.
.	.	32b	.
8r	8a	8cc	8C
8ee	8g	8b	8C
=57	=57	=57	=57
8ee	8f#	8a	8D
4dd	8f#	8a	8D
.	8f#	8a	8D
16a	8f#	8a	8D
16b	.	.	.
24cc	8a	8f#	8D
24b	.	.	.
24a	.	.	.
24ee	8a	8f#	8D
24dd	.	.	.
24cc	.	.	.
=58	=58	=58	=58
8.cc	4a	4f#	8E
.	.	.	8E
32b	.	.	.
32cc	.	.	.
4b	4g	8g	8E
.	.	8g	8E
4r	4r	8f#	8D
.	.	8e	8C
=59	=59	=59	=59
16r	16r	4d 4G	4BB
16gg	16g	.	.
16aa	16a	.	.
16gg	16g	.	.
16ff#	16f#	2r	2r
16gg	16g	.	.
16ee	16e	.	.
16dd	16d	.	.
16cc	16c	.	.
16b	16B	.	.
16a	16A	.	.
16g	16G	.	.
=60	=60	=60	=60
16r	16r	4e	4C
16aa	16a	.	.
16bb	16b	.	.
16aa	16a	.	.
16gg#	16g#	4r	4r
16aa	16a	.	.
16gg	16g	.	.
16ff#	16f#	.	.
16ee	16e	4A	4F#
16dd	16d	.	.
16a	16A	.	.
16cc	16c	.	.
=61	=61	=61	=61
16r	16r	16r	4G
16b	16B	16G	.
16cc	16c	16A	.
16cc	16c	16A	.
16dd	16d	16B	2r
16dd	16d	16B	.
16ee	16e	16c	.
16ee	16e	16c	.
16ff#	16f#	16d	.
16ff#	16f#	16d	.
16gg	16g	16e	.
16gg	16g	16e	.
=62	=62	=62	=62
8ee	8e	8c	8C
16dd	16d	16B	8C
16cc	16c	16A	.
4b	4B	4G	8D
.	.	.	8D
4a	4A	4F#	8D
.	.	.	8D
=63	=63	=63	=63
16r	16r	4d 4G	4BB
16gg	16g	.	.
16aa	16a	.	.
16gg	16g	.	.
16ff#	16f#	2r	2r
16gg	16g	.	.
16ee	16e	.	.
16dd	16d	.	.
16cc	16c	.	.
16b	16B	.	.
16a	16A	.	.
16g	16G	.	.
=64	=64	=64	=64
16r	16r	4e	4C
16aa	16a	.	.
16bb	16b	.	.
16aa	16a	.	.
16gg#	16g#	4r	4r
16aa	16a	.	.
16gg	16g	.	.
16ff#	16f#	.	.
16ee	16e	4A	4F#
16dd	16d	.	.
16a	16A	.	.
16cc	16c	.	.
=65	=65	=65	=65
16r	16r	16r	4G
16b	16B	16G	.
16cc	16c	16A	.
16cc	16c	16A	.
16dd	16d	16B	2r
16dd	16d	16B	.
16ee	16e	16c	.
16ee	16e	16c	.
16ff#	16f#	16d	.
16ff#	16f#	16d	.
16gg	16g	16e	.
16gg	16g	16e	.
=66	=66	=66	=66
8ee	8e	8c	8C
16dd	16d	16B	8C
16cc	16c	16A	.
4b	4B	4G	8D
.	.	.	8D
4a	4A	4F#	8D
.	.	.	8D
=67	=67	=67	=67
8g	8G	8G	4.G
4.ddd	8g	8d	.
.	8b	8g	.
.	8dd	8b	8B
24ccc	[4dd	8a	4d
24bb	.	.	.
24aa	.	.	.
24gg	.	8cc	.
24aa	.	.	.
24ff#	.	.	.
=68	=68	=68	=68
8gg	8dd]	8b	4G
4.dd	8b	8g	.
.	8g	8d	4BB
.	8d	8B	.
24cc	8A	8F#	4D
24b	.	.	.
24a	.	.	.
24g	8c	8A	.
24a	.	.	.
24f#	.	.	.
=69	=69	=69	=69
2f#	2c	2A	[2GG
8g	8B	8G	8GG]
8r	8r	8r	8r
==	==	==	==
*-	*-	*-	*-
!!!RWG1: This file contains only pitch and duration data.
!!!RWG2: Transposing instruments are not transposed.
!!!RWG3: Spines may have incompatible meters.
!!!RWG4: Durations of rests and tied notes may be interpreted.
!!!RWG: Key is interpreted using the Humdrum key tool.
!!!AFT: stage1
!!!END: 1997/04/15
!!format changes:
!!content changes:
!!public access: complete
!!!KEY: 1894717159
!!!EMD: Converted from MuseData to Humdrum Dec 16, 2000, by Andreas Kornstaedt using muse2kern.
